src/lib/packages/icons/src/assets/line/dollar-send-circle.svg

<svg width="24" height="24" viewBox="0 0 24 24" fill="none" xmlns="http://www.w3.org/2000/svg">
<path d="M21.65 9.26501C21.244 9.34801 20.983 9.74402 21.065 10.15C21.188 10.753 21.25 11.376 21.25 12C21.25 17.101 17.101 21.25 12 21.25C6.899 21.25 2.75 17.101 2.75 12C2.75 6.899 6.899 2.75 12 2.75C12.947 2.75 13.88 2.89305 14.774 3.17505C15.172 3.29805 15.59 3.08006 15.715 2.68506C15.84 2.29006 15.62 1.86902 15.225 1.74402C14.184 1.41602 13.1 1.24902 11.999 1.24902C6.07099 1.24902 1.24899 6.07102 1.24899 11.999C1.24899 17.927 6.07099 22.749 11.999 22.749C17.927 22.749 22.749 17.927 22.749 11.999C22.749 11.274 22.677 10.551 22.534 9.849C22.452 9.444 22.057 9.18301 21.65 9.26501ZM18.53 4.53003L19.25 3.81006V7C19.25 7.414 19.586 7.75 20 7.75C20.414 7.75 20.75 7.414 20.75 7V3.81104L21.47 4.53101C21.616 4.67701 21.808 4.75098 22 4.75098C22.192 4.75098 22.384 4.67801 22.53 4.53101C22.823 4.23801 22.823 3.76297 22.53 3.46997L20.53 1.46997C20.461 1.40097 20.378 1.34598 20.286 1.30798C20.103 1.23198 19.896 1.23198 19.713 1.30798C19.621 1.34598 19.538 1.40097 19.469 1.46997L17.469 3.46997C17.176 3.76297 17.176 4.23801 17.469 4.53101C17.762 4.82401 18.237 4.82303 18.53 4.53003ZM11.978 17.75C12.392 17.75 12.728 17.414 12.728 17V16.6021C13.283 16.5211 13.798 16.275 14.203 15.87C14.699 15.374 14.973 14.716 14.973 14.017C14.973 12.815 14.158 11.769 12.987 11.473L11.379 11.074C11.131 11.012 10.92 10.873 10.761 10.67C10.611 10.48 10.528 10.236 10.528 9.98499C10.528 9.36598 11.031 8.86304 11.65 8.86304H12.35C12.922 8.86304 13.401 9.29304 13.466 9.86304C13.512 10.275 13.883 10.575 14.295 10.525C14.707 10.479 15.003 10.108 14.957 9.69604C14.822 8.49404 13.892 7.56695 12.728 7.39795V7C12.728 6.586 12.392 6.25 11.978 6.25C11.564 6.25 11.228 6.586 11.228 7V7.40405C9.983 7.60805 9.028 8.68203 9.028 9.98303C9.028 10.57 9.225 11.144 9.58 11.592C9.936 12.051 10.444 12.383 11.014 12.527L12.622 12.926C13.123 13.053 13.473 13.501 13.473 14.015C13.473 14.313 13.356 14.594 13.143 14.807C12.93 15.02 12.649 15.137 12.351 15.137H11.651C11.079 15.137 10.6 14.707 10.535 14.137C10.489 13.725 10.117 13.423 9.70599 13.475C9.29399 13.521 8.99801 13.892 9.04401 14.304C9.17701 15.491 10.085 16.412 11.228 16.597V17C11.228 17.414 11.563 17.75 11.978 17.75Z" fill="currentColor"/>
</svg>

<svg xmlns="http://www.w3.org/2000/svg" width="24" height="24" fill="none"><path fill="currentColor" d="M21.65 9.265a.75.75 0 0 0-.585.885A9.28 9.28 0 0 1 21.25 12c0 5.101-4.149 9.25-9.25 9.25S2.75 17.101 2.75 12 6.899 2.75 12 2.75c.947 0 1.88.143 2.774.425a.75.75 0 0 0 .451-1.431 10.715 10.715 0 0 0-3.226-.495c-5.928 0-10.75 4.822-10.75 10.75s4.822 10.75 10.75 10.75 10.75-4.822 10.75-10.75c0-.725-.072-1.448-.215-2.15a.749.749 0 0 0-.884-.584ZM18.53 4.53l.72-.72V7a.75.75 0 0 0 1.5 0V3.811l.72.72a.748.748 0 0 0 1.06 0 .75.75 0 0 0 0-1.061l-2-2a.749.749 0 0 0-.817-.162.749.749 0 0 0-.244.162l-2 2a.75.75 0 1 0 1.061 1.06Zm-6.552 13.22a.75.75 0 0 0 .75-.75v-.398a2.605 2.605 0 0 0 2.245-2.585 2.623 2.623 0 0 0-1.986-2.544l-1.608-.399a1.121 1.121 0 0 1 .271-2.211h.7c.572 0 1.051.43 1.116 1a.75.75 0 1 0 1.491-.167 2.617 2.617 0 0 0-2.229-2.298V7a.75.75 0 0 0-1.5 0v.404a2.62 2.62 0 0 0-2.2 2.579c0 .587.197 1.161.552 1.609.356.459.864.791 1.434.935l1.608.399c.501.127.851.575.851 1.089 0 .298-.117.579-.33.792-.213.213-.494.33-.792.33h-.7c-.572 0-1.051-.43-1.116-1a.746.746 0 0 0-.829-.662.75.75 0 0 0-.662.829 2.617 2.617 0 0 0 2.184 2.293V17c0 .414.335.75.75.75Z"/></svg>
